remix/System/zoom-in-fill.svg

<svg viewBox="0 0 24 24" fill="currentColor" xmlns="http://www.w3.org/2000/svg"><path d="M18.031 16.6168L22.3137 20.8995L20.8995 22.3137L16.6168 18.031C15.0769 19.263 13.124 20 11 20C6.032 20 2 15.968 2 11C2 6.032 6.032 2 11 2C15.968 2 20 6.032 20 11C20 13.124 19.263 15.0769 18.031 16.6168ZM10 10H7V12H10V15H12V12H15V10H12V7H10V10Z"/></svg>

<svg viewBox="0 0 24 24" xmlns="http://www.w3.org/2000/svg"><path fill="none" d="M0 0h24v24H0Z"/><path d="M18.031 16.61l4.28 4.282 -1.42 1.41 -4.29-4.29 0 0c-1.6 1.27-3.58 1.97-5.62 1.96 -4.968 0-9-4.032-9-9s4.032-9 9-9 9 4.032 9 9v0c0 2.04-.7 4.02-1.97 5.61Zm-8.04-6.62h-3v2h3v3h2v-3h3v-2h-3v-3h-2v3Z"/></svg>
